X:371
T:Bunch of Roses, The
R:jig
H:A version of Greensleeves
Z:hn-jig-371
M:6/8
L:1/8
K:Gdor
~B3 Bcd|c2A ABc|BAG GAB|A=FD D2A|
~B3 Bcd|c2A ABc|BAG AG^F|1 ~G3 G2A:|2 ~G3 G2e||
=f2d def|g2d cBA|GBd ~g3|afd d2e|
fga gfe|fed cBA|GAB AG^F|1 ~G3 G2e:|2 ~G3 G2A||
